X:041 
T:Dooagh Polka*, The  
B:CRE4.075 (gan ainm)[BB setting]
F:file ID: cre.4/041dooagh
S:BPC < Barrett < Collins
L:1/8
M:2/4
R:polka
Q:120
K:G
D|G>F GB|dc AB|c>B cd|ed Bd|
G>F GB|dc AB|c>A ec|BG G:|
d|g2 fg|ed Bd|c>B cd|ed Bd|
g2 fg|ed Bd|c>A ec|BG G:|

%%%

